packages/icons/svg/Outline/phone.svg

<svg fill="none" height="24" viewBox="0 0 24 24" width="24" xmlns="http://www.w3.org/2000/svg"><path clip-rule="evenodd" d="m6.60014 4.00007c-1.434 0-2.6 1.16599-2.6 2.59999 0 7.38804 6.01096 13.40004 13.39996 13.40004 1.433 0 2.6-1.166 2.6-2.6 0-.111-.007-.22-.021-.328l-4.62-1.06c-.092.176-.193.367-.285.545-.456.87-.786 1.502-1.628 1.163-3.306-1.16-6.00496-3.86-7.17996-7.206-.357-.78504.323-1.14104 1.185-1.59104.175-.092.364-.191.537-.281l-1.06-4.62099c-.111-.014-.219-.021-.328-.021zm10.79996 17.99993c-8.49198 0-15.39998-6.908-15.39998-15.4 0-2.537 2.063-4.6 4.6-4.6.26 0 .517.022.766.065.243.039.487.101.725.183.325.113.57.386.647.722l1.36898 5.964c.076.328-.019.672-.25298.916-.136.142-.139.145-1.379.794 1.004 2.174 2.74898 3.913 4.87898 4.883.65-1.241.654-1.245.796-1.381.244-.234.59-.325.916-.253l5.965 1.369c.335.077.608.321.72.646.082.236.144.48.185.731.042.247.064.503.064.761 0 2.537-2.064 4.6-4.6 4.6z" fill="#6b7280" fill-rule="evenodd"/></svg>

<svg width="24" height="24" viewBox="0 0 24 24" fill="none" xmlns="http://www.w3.org/2000/svg">
<g id="Icon/Outline/phone">
<path id="Mask" fill-rule="evenodd" clip-rule="evenodd" d="M6.6 4C5.166 4 4 5.166 4 6.6C4 13.988 10.011 20 17.4 20C18.833 20 20 18.834 20 17.4C20 17.289 19.993 17.18 19.979 17.072L15.359 16.012C15.267 16.188 15.166 16.379 15.074 16.557C14.618 17.427 14.288 18.059 13.446 17.72C10.14 16.56 7.441 13.86 6.266 10.514C5.909 9.729 6.589 9.373 7.451 8.923C7.626 8.831 7.815 8.732 7.988 8.642L6.928 4.021C6.817 4.007 6.709 4 6.6 4ZM17.4 22C8.908 22 2 15.092 2 6.6C2 4.063 4.063 2 6.6 2C6.86 2 7.117 2.022 7.366 2.065C7.609 2.104 7.853 2.166 8.091 2.248C8.416 2.361 8.661 2.634 8.738 2.97L10.107 8.934C10.183 9.262 10.088 9.606 9.854 9.85C9.718 9.992 9.715 9.995 8.475 10.644C9.479 12.818 11.224 14.557 13.354 15.527C14.004 14.286 14.008 14.282 14.15 14.146C14.394 13.912 14.74 13.821 15.066 13.893L21.031 15.262C21.366 15.339 21.639 15.583 21.751 15.908C21.833 16.144 21.895 16.388 21.936 16.639C21.978 16.886 22 17.142 22 17.4C22 19.937 19.936 22 17.4 22Z" fill="#000000"/>
</g>
</svg>
